!!!COM: Gustav Mahler
!!!CNT: Deutsch
!!!TXO: Deutsch
!!!OTL: "Gieng heut' Morgen u2ber's Feld"
!!!LYR: Gustav Mahler
!!!OPR: Lieder eines fahrenden Gesellen
!!!ENC: O'Neal Douglas
!!!YOR: CD Sheet Music: Late Romantic German Lieder
!!!YOR: CD Sheet Music, LLC, 2001
!!!ODT: 1885/
!!NB: Vocal melody and text encoded.
**kern	**text
*staff1	*staff1
=1-	=1-
*clefG2	*
*k[f#c#]	*
*M2/2	*
*MM120	*
1r	.
=2	=2
2r	.
{4d	{Gieng
4A	heut
=3	=3
4d	Mor-
4e	-gen
4f#	u2-
4g	-ber's
=4	=4
2a	Feld,
4b	Thau
(8cc#	noch-
8dd)	|
=5	=5
4cc#	-auf
4b	den
4a	Gra2-
4f#	-sern
=6	=6
2g	hieng
4a	sprach
(8b	zu
8cc#)	|
=7	=7
4b	mir
4a	der
4g	list'-
4e	-ge
=8	=8
2f#	Fink:
4g	Ei
(8a	du!
8b)	|
=9	=9
1a}	Gelt?}
=10	=10
1r	.
=11	=11
{2g	{Gu-
2g	-ten
=12	=12
(8f#	Mor-
8g	|
8e	|
8f#)	|
4d	-gen!
4f#	Ei,
=13	=13
2g	Gelt?
2g	Du!
=14	=14
(8f#	Wird's
8g)	|
(8a	nicht
8b)	|
4cc#	ei-
4dd	-ne
=15	=15
4.dd#	scho2-
8ee	-ne
2ee	Welt?
=16	=16
4.ee#	Scho2-
8ff#	-ne
2ff#}	Welt?}
=17	=17
1r	.
=18	=18
1r	.
=19	=19
{2a	{Zink!
2r	.
=20	=20
2a	Zink!
2r	.
=21	=21
(8dd#	Scho2n
8ee	|
8ff#	|
8ee	|
8ddn	|
8cc#)	|
(8b	und
8a)	|
=22	=22
2dd}	flink!}
2r	.
=23	=23
4r	.
{2b	{Wie
(8a#	mir
8b)	|
=24	=24
4g	doch
4b	die
4.gg	Welt
8ff#	ge-
=25	=25
2ee}	-fa2llt!}
2r	.
=26	=26
1r	.
=27	=27
1r	.
=28	=28
1r	.
=29	=29
1r	.
=30	=30
2r	.
{4d	{Auch
4A	die
=31	=31
4d	Glo-
4e	-cken-
4f#	-blum'
4g	am
=32	=32
2a	Feld
4b	hat
(8cc#	mir
8dd)	|
=33	=33
4cc#	lu-
4b	-stig,
4a	gu-
4f#	-ter
=34	=34
2g	Ding;
4a	mit
(8b	den
8cc#)	|
=35	=35
4b	Glo2ck-
4a	-chem,
4g	klin-
4e	-ge,
=36	=36
2f#	kling,
4g	klin-
(8a	-ge
8b)	|
=37	=37
[1a	kling,
=38	=38
1a]}	|}
=39	=39
{2g	{ih-
2g	-ren
=40	=40
(8f#	Mor-
8g)	|
(8e	-gen
8f#)	|
4d	gruss
4f#	ge-
=41	=41
2g	-schellt:
2r	.
=42	=42
(8f#	Wird's
8g)	|
(8a	nicht
8b)	|
4cc#	ei-
4dd	-ne
=43	=43
4.dd#	scho2-
8ee	-ne
2ee	Welt?
=44	=44
4.ee#	Scho2-
8ff#	-ne
2ff#}	Welt?}
=45	=45
1r	.
=46	=46
2r	.
4r	.
{4a	{Kling!
=47	=47
2gg	Kling!
4r	.
4a	Kling!
=48	=48
2ff#	Kling!
2r	.
=49	=49
(8dd#	Scho2-
8ee	|
8ff#	|
8ee	|
8ddn	|
8cc#)	|
(8b	-nes
8a)	|
=50	=50
2dd}	Ding!}
2r	.
=51	=51
4r	.
{2dd	{Wie
(8cc#	mir
8dd)	|
=52	=52
4b	doch
(8a#	die
8b)	|
4g	Welt
(8f#	ge-
8g)	|
=53	=53
4e	-fa2llt!
4r	.
4gg	Hei-
[4a	-ah!
=54	=54
2a]}	|}
2r	.
=55	=55
1r	.
=56	=56
1r	.
=57	=57
1r	.
=58	=58
1r	.
=59	=59
1r	.
=60	=60
1r	.
=61	=61
1r	.
=62	=62
*k[f#c#g#d#a#]	*
1r	.
=63	=63
1r	.
=64	=64
1r	.
=65	=65
2r	.
{4b	{Und
4f#	da
=66	=66
4b	fleng
4cc#	im
4dd#	Son-
4ee	-nen-
=67	=67
[1ff#	-schein
=68	=68
1ff#_	|
=69	=69
2ff#]}	|}
2r	.
=70	=70
1r	.
=71	=71
2r	.
{4b	{gleich
4f#	die
=72	=72
4b	Welt
4cc#	zu
4dd#	fun-
4ee	-kein
=73	=73
[1ff#	an;
=74	=74
2ff#]}	|}
2r	.
=75	=75
{2f#	{Al-
2f#	-les,
=76	=76
([2f#	Al-
8f#]	|
8g#)	|
(8a#	-les,
8b)	|
=77	=77
2cc#	Ton
2cc#	und
=78	=78
(4.cc#	Far-
8dd#)	|
(8b	-be
8f#)	|
(8d#	ge-
8e)	|
=79	=79
2f#}	-wann!}
4r	.
{4f#	{Im-
=80	=80
4.f#	Son-
8g#	-nen-
[2f#	-schein!
=81	=81
4f#]	|
4r	.
(8dd#	Blum'
8cc#)	|
(8dd#	und
8b)	|
=82	=82
4a#	Vo-
(8b	-gel,
8cc#)	|
(8b	gross
8a#)	|
(8b	und
8g#)	|
=83	=83
1f#}	klein!}
=84	=84
1r	.
=85	=85
2r	.
{(8cc#	{Gu-
8b)	|
(8a#	-ten
8b)	|
=86	=86
2cc#	Tag!
(8cc#	Gu-
8b)	|
(8a#	-ten
8b)	|
=87	=87
[1cc#	Tag!
=88	=88
1cc#_	|
=89	=89
4cc#]}	|}
4r	.
{4a#	{Ist's
4dd#	nicht
=90	=90
4cc#	ei-
4a#	-ne
4f#	scho2-
4d#	-ne
=91	=91
2b	Welt?
(8b	Ei,
8a#)	|
(8g#	du!
8dd#)	|
=92	=92
2b	Gelt?
(8b	Ei,
8a#)	|
(8g#	du!
8dd#)	|
=93	=93
1b}	Gelt?}
=94	=94
1r	.
=95	=95
2r	.
{(8a#	{Scho2-
8g#)	|
(8f#	-ne
8dd#)	|
=96	=96
[1cc#	Welt!
=97	=97
1cc#_	|
=98	=98
4cc#]}	|}
4r	.
2r	.
=99	=99
1r	.
=100	=100
1r	.
=101	=101
1r	.
=102	=102
1r	.
=103	=103
2r	.
{4f#	{Nun
4c#	fa2ngt
=104	=104
4f#	auch
4g#	mein
4a#	Glu2ck
4b	wohl
=105	=105
1a#}	an?!}
=106	=106
1r	.
=107	=107
1r	.
=108	=108
2r	.
{4b	{Nuu
4f#	fa2ngt
=109	=109
4b	auch
4cc#	mein
4dd#	Glu2ck
4ee	wohl
=110	=110
1dd#}	an?!}
=111	=111
1r	.
=112	=112
1r	.
=113	=113
1r	.
=114	=114
1r	.
=115	=115
2r	.
{2b	{Nein!
=116	=116
2g#	Nein!
2r	.
=117	=117
2r	.
4g##	Das
4a#	ich
=118	=118
1f#	mein',
=119	=119
4r	.
4cc#	mir
4gg#	nim-
4ff#	-mer,
=120	=120
2.ee#	nim-
4dd#	-mer
=121	=121
2cc#	blu2-
2b	-hen
=122	=122
(2a#	kann!
2g#)}	|}
=123	=123
1r	.
=124	=124
1r	.
=125	=125
1r	.
=126	=126
1r	.
=127	=127
1r	.
==	==
*-	*-
